X: 25
T: Miss Grace Speirs Strathspey
R: strathspey
Q: "Slow"
B: William Shepherd "1st Collection" 1793 p.2 #5
F: http://imslp.org/wiki/File:PMLP73094-Shepherd_Collections_HMT.pdf
C: William Shepherd (17??-1812)
Z: 2012 John Chambers <jc:trillian.mit.edu>
M: C
L: 1/16
K: D
A,2 |\
D3FA3F d3FA3F | D3FA3F d3e dcBA |\
E3GB3G e3GB3G | E3FG3A B2e/f/g/e/ dcBA |
D3FA3F d3FA3F | (DE).F.G (AF).d.F B3AG3F |\
g3ef3d A3dF3D | E3B, (EF)GA B4 {Bc}d2A2 ||
d3fa3f b3ga3f | d3A defg a3fd3A |\
B3eg3e b3ge3B | E2ef g3e d3cB3A |
d3fa3f b3ga3f | d3A d2ef B3AG3F |\
b3ga3f g3eF3D | E3E (EF)GA B4 {Bc}d2 |]
